X: 825
T:Rasheed Bay
C:?
S:YouTube, Sharon Shannon
M:4/4
L:1/8
Z:https://nigelgatherer.com/
K:Em
B2 BA FE E2 | DEED E2 B,E | B2 BA FE E2 | G2 BG ABcA |
BGAB GEEF | DEED EDB,A, | B,EDF EGFA | GBAF GE E2 :|
edBd e4 | dBAB d2 ^cd | Be e2 efga | bgab gaba |
g2 fg egfe | dBAB d3 A | fAeA dBAF | DAFD E4 :|

